X:1
T:Title
%%score { ( 1 3 ) | 2 }
L:1/8
Q:1/4=81
M:6/8
K:Ab
V:1 treble nm="Grand Piano"
V:3 treble 
V:2 bass 
V:1
 [CE]2 [CE] [CF]2 [CE] | [Ec]2 [Ec] [DB]2 [CA] | F2 A E2 [Ec] | c2 B B3 | [Ec]2 [Ec] B2 B | %5
w: William~J.~Kirkpatrick * * *|||||
 A2 [C_GA] [DFA]2 [A,DF] | [A,E]2 [G,DE] [EA]>[FB]c | c2 B [CA]3 | c2 e e2 [Ee] | c2 B B2 A | %10
w: |||||
 c2 e e2 e | d2 c B3 | [Ec]2 [Ec] B2 B | A2 [C_GA] [DFA]2 [A,DF] | [A,E]2 [G,DE] [EA]>[FB]c | %15
w: |||||
[M:7/4] c2 B [CA]3 z2 z2 z4 |] %16
w: |
V:2
 [A,,A,]2 [A,,A,] [A,,A,]2 [A,,A,] | [A,,A,]2 [A,,A,] [A,,A,]2 [A,,A,] | %2
 [D,A,D]2 [D,F,D] [C,A,]2 [A,,A,] | [E,A,E]2 [E,G,E] [E,G,E]3 | %4
 [A,,A,]2 [A,,A,] [E,G,D]2 [=E,G,D] | [F,A,C]2 E, D,2 D, | C,2 B,, C,>D,[E,A,E] | %7
 [E,A,E]2 [E,G,D] [A,,A,]3 | [A,E]2 [A,CEA] [A,CEA]2[K:bass] [C,A,] | %9
 [E,A,E]2 [E,G,D] [A,D]2 [A,C] | [A,E]2 [A,CEA] [A,CEA]2 [A,CE] | [G,B,E]2[K:bass] [A,E] [E,G,E]3 | %12
 [A,,A,]2 [A,,A,] [E,G,D]2 [=E,G,D] | [F,A,C]2 E, D,2 D, | C,2 B,, C,>D,[E,A,E] | %15
[M:7/4] [E,A,E]2 [E,G,D] [A,,A,]3 z2 z2 z4 |] %16
V:3
 x6 | x6 | x6 | x6 | x6 | x6 | z3 .A,3 | x6 | x6 | x6 | x6 | x6 | x6 | x6 | z3 .A,3 |[M:7/4] x14 |] %16

